X:1
T:Title
%%score 1 ( 2 3 )
L:1/8
Q:1/4=85
M:4/4
K:Bb
V:1 treble nm="Grand Piano, Soprano"
V:2 bass nm="Choir Pad, Alperton, 88.87 D"
V:3 bass 
V:1
 [DB]>[Ec] [Fd]>[Fd] [Fd][Fd][Ge][Fd] | [Fc][FB] [GB]>[GB] [GB][GB][Gc][GB] | %2
w: By~Charles~K.~Langley~(1852\-ca.~1904) * * * * * * *||
 [FA][EG][DF][DF] [FB]>[Fd] [Ff][Fd] | [FB][Fd] [Fc]>[Fd] [Fc][F=B] [Fc]2 | %4
w: ||
 [FB]>[Fc] [Fd]>[Fd] [Fd][_Af][Ge][Fd] | [Fc][FB] [GB]>[Gc] [GB][^FA][Ac][GB] | %6
w: ||
 [FA][EG][DF][DF] [FB][Fd][Ff][Fd] | [FB]>[Gc] [Fd][Fd] [Ec]>[Ec] [DB]2- | [DB]4 z4 |] %9
w: |||
V:2
 [B,,B,]>[B,,B,] [B,,B,]>[B,,B,] [B,,B,][B,,B,][B,,B,][B,,B,] | %1
 [C,A,][D,B,] [E,B,]>[E,B,] [E,B,][E,B,][E,E][E,E] | %2
 [E,B,][E,B,][B,,B,][B,,B,] [D,B,]>[F,B,] [B,D][F,B,] | %3
 [D,B,][B,,B,] [F,A,]>[F,B,] [F,A,][F,_A,]=A,-[E,A,] | %4
 [D,B,]>[C,A,] [B,,B,]>[B,,B,] [B,,B,][B,,B,][B,,B,][B,,B,] | %5
 [B,,A,][D,B,] [E,B,]>[E,B,] [E,B,][E,B,][E,E][E,E] | %6
 [E,B,][E,B,][B,,B,][B,,B,] [D,B,][F,B,][B,D][F,C] | %7
 [D,B,]>[E,B,] [F,B,][F,B,] [F,A,]>[F,A,] [B,,B,]2- | [B,,B,]4 z4 |] %9
V:3
 x8 | x8 | x8 | z4 z2 .F,2 | x8 | x8 | x8 | x8 | x8 |] %9

